**harm	**harte	**kern	**silbe	**kern	**silbe	**rhyme	**timestamp	**phrase	**leadinstrument
*M4/4	*M4/4	*ICvox	*	*ICvox	*	*	*	*	*
*	*	*VRlead	*	*VRbacking*VRharmonize	*	*	*	*	*
*	*	*Hstimme	*	*Nstimme	*	*	*	*	*
*B-:	*B-:	*B-:	*	*B-:	*	*	*	*	*
*	*	*M4/4	*	*M4/4	*	*	*	*	*
*	*	*clefGv2	*	*clefG2	*	*	*	*	*
1r;	N	r;	.	1r	.	.	0	.	r
=1	=1	=1	=1	=1	=1	=1	=1	=1	=1
*>Letter>A	*>Letter>A	*>Letter>A	*>Letter>A	*>Letter>A	*>Letter>A	*>Letter>A	*>Letter>A	*>Letter>A	*>Letter>A
*>Label>Intro	*>Label>Intro	*>Label>Intro	*>Label>Intro	*>Label>Intro	*>Label>Intro	*>Label>Intro	*>Label>Intro	*>Label>Intro	*>Label>Intro
4I	B-:maj	1r	.	1r	.	.	0.348	newline	r
4IVm7c	E-:7/5	.	.	.	.	.	0.962	.	r
4I	B-:maj	.	.	.	.	.	1.575	.	r
4IVm7c	E-:7/5	.	.	.	.	.	2.188	.	r
=2	=2	=2	=2	=2	=2	=2	=2	=2	=2
4I	B-:maj	1r	.	1r	.	.	2.802	.	r
4IVm7c	E-:7/5	.	.	.	.	.	3.415	.	r
4I	B-:maj	.	.	.	.	.	4.028	.	r
4IVm7c	E-:7/5	.	.	.	.	.	4.642	.	r
=3	=3	=3	=3	=3	=3	=3	=3	=3	=3
4I	B-:maj	1r	.	1r	.	.	5.255	.	r
4IVm7c	E-:7/5	.	.	.	.	.	5.868	.	r
4I	B-:maj	.	.	.	.	.	6.481	.	r
4IVm7c	E-:7/5	.	.	.	.	.	7.095	.	r
=4	=4	=4	=4	=4	=4	=4	=4	=4	=4
*>Letter>B	*>Letter>B	*>Letter>B	*>Letter>B	*>Letter>B	*>Letter>B	*>Letter>B	*>Letter>B	*>Letter>B	*>Letter>B
*>Label>Verse	*>Label>Verse	*>Label>Verse	*>Label>Verse	*>Label>Verse	*>Label>Verse	*>Label>Verse	*>Label>Verse	*>Label>Verse	*>Label>Verse
1I	B-:maj	8.F	All	1r	.	.	7.708	newline	voice
.	.	[16G	the	.	.	.	.	.	.
.	.	8G]	_	.	.	.	.	.	.
.	.	[8B-	wai	.	.	A	.	.	.
.	.	16B-]	_	.	.	.	.	.	.
.	.	8.F	ters	.	.	.	.	.	.
.	.	8G	in	.	.	.	.	.	.
.	.	8B-	your	.	.	.	.	.	.
=5	=5	=5	=5	=5	=5	=5	=5	=5	=5
1II7	C:7	8.G	grand	1r	.	.	10.124	.	voice
.	.	[16A	ca	.	.	.	.	.	.
.	.	8A]	_	.	.	.	.	.	.
.	.	[8c	fe	.	.	A	.	.	.
.	.	8c]	_	.	.	.	.	.	.
.	.	8r	.	.	.	.	.	.	.
.	.	4r	.	.	.	.	.	.	.
=6	=6	=6	=6	=6	=6	=6	=6	=6	=6
1V7	F:7	8.c	leave	1r	.	.	12.54	.	voice
.	.	[16d	their	.	.	.	.	.	.
.	.	8d]	_	.	.	.	.	.	.
.	.	[8f	ta	.	.	A	.	.	.
.	.	16f]	_	.	.	.	.	.	.
.	.	8.c	bles	.	.	.	.	.	.
.	.	8d	when	.	.	.	.	.	.
.	.	8f	you	.	.	.	.	.	.
=7	=7	=7	=7	=7	=7	=7	=7	=7	=7
2I	B-:maj	8d	blink	1r	.	B	14.956	.	voice
.	.	8r	.	.	.	.	.	.	.
.	.	8r	.	.	.	.	.	.	.
.	.	16~d-	oh	.	.	.	.	.	.
.	.	[16c	_	.	.	.	.	.	.
2IVc	E-:maj/5	4c]	_	.	.	.	16.163	.	voice
.	.	16~d-	_	.	.	.	.	.	.
.	.	16c	_	.	.	.	.	.	.
.	.	16B-	_	.	.	.	.	.	.
.	.	16G	_	.	.	.	.	.	.
=8	=8	=8	=8	=8	=8	=8	=8	=8	=8
1I	B-:maj	8.F	ev-	1r	.	.	17.371	newline	voice
.	.	[16G	-'ry	.	.	.	.	.	.
.	.	8G]	_	.	.	.	.	.	.
.	.	8B-	dog	.	.	.	.	.	.
.	.	16r	.	.	.	.	.	.	.
.	.	8.F	must	.	.	.	.	.	.
.	.	8G	have	.	.	.	.	.	.
.	.	8B-	his	.	.	.	.	.	.
=9	=9	=9	=9	=9	=9	=9	=9	=9	=9
1II7	C:7	8.G	ev-	1r	.	.	19.801	.	voice
.	.	[16A	-'ry	.	.	.	.	.	.
.	.	8A]	_	.	.	.	.	.	.
.	.	[8c	day	.	.	A	.	.	.
.	.	8c]	_	.	.	.	.	.	.
.	.	8r	.	.	.	.	.	.	.
.	.	4r	.	.	.	.	.	.	.
=10	=10	=10	=10	=10	=10	=10	=10	=10	=10
1V7	F:7	8.c	ev-	1r	.	.	22.232	.	voice
.	.	[16d	-'ry	.	.	.	.	.	.
.	.	8d]	_	.	.	.	.	.	.
.	.	8f	drunk	.	.	.	.	.	.
.	.	16r	.	.	.	.	.	.	.
.	.	8.c	must	.	.	.	.	.	.
.	.	8d	have	.	.	.	.	.	.
.	.	8f	his	.	.	.	.	.	.
=11	=11	=11	=11	=11	=11	=11	=11	=11	=11
.	.	8cq	_	.	.	.	.	.	.
2I	B-:maj	8d	drink	1r	.	B	24.662	.	voice
.	.	8r	.	.	.	.	.	.	.
.	.	8r	.	.	.	.	.	.	.
.	.	16d	Don't	.	.	.	.	.	.
.	.	16B-Q	_	.	.	.	.	.	.
.	.	[16c	wait	.	.	A	.	.	.
2III7c	D:7/5	4.c]	_	.	.	.	25.877	.	voice
.	.	16d	for	.	.	.	.	.	.
.	.	[16B-	an	.	.	(C	.	.	.
=12	=12	=12	=12	=12	=12	=12	=12	=12	=12
*>Letter>C	*>Letter>C	*>Letter>C	*>Letter>C	*>Letter>C	*>Letter>C	*>Letter>C	*>Letter>C	*>Letter>C	*>Letter>C
*>Label>Chorus	*>Label>Chorus	*>Label>Chorus	*>Label>Chorus	*>Label>Chorus	*>Label>Chorus	*>Label>Chorus	*>Label>Chorus	*>Label>Chorus	*>Label>Chorus
2vi	G:min	16B-]	_	1r	.	.	27.092	newline	voice
.	.	8.G	swers	.	.	c)	.	.	.
.	.	8r	.	.	.	.	.	.	.
.	.	16d	just	.	.	.	.	.	.
.	.	16B-Q	_	.	.	.	.	.	.
.	.	[16c	take	.	.	A	.	.	.
2Im7c	B-:7/5	4.c]	_	.	.	.	28.311	.	voice
.	.	16d	your	.	.	.	.	.	.
.	.	[16B-	chan	.	.	(C	.	.	.
=13	=13	=13	=13	=13	=13	=13	=13	=13	=13
2#ivo7	E:hdim7	16B-]	_	1r	.	.	29.53	.	voice
.	.	8.G	ces	.	.	c)	.	.	.
.	.	8r	.	.	.	.	.	.	.
.	.	8~cq	_	.	.	.	.	.	.
.	.	16~d-	don't	.	.	.	.	.	.
.	.	[16c	ask	.	.	.	.	.	.
2V	F:sus4(b7)	4c]	_	.	.	.	30.75	.	voice
.	.	8r	.	.	.	.	.	.	.
.	.	16B-	me	.	.	.	.	.	.
.	.	[16B-	why	.	.	.	.	.	.
=14	=14	=14	=14	=14	=14	=14	=14	=14	=14
4I	B-:maj	4.B-]	_	1r	.	.	31.969	.	voice
4IVm7c	E-:7/5	.	.	.	.	.	32.579	.	voice
.	.	8r	.	.	.	.	.	.	.
4I	B-:maj	2r	.	.	.	.	33.188	.	voice
4IVm7c	E-:7/5	.	.	.	.	.	33.798	.	voice
=15	=15	=15	=15	=15	=15	=15	=15	=15	=15
4I	B-:maj	1r	.	1r	.	.	34.408	.	voice
4IVm7c	E-:7/5	.	.	.	.	.	35.017	.	voice
4I	B-:maj	.	.	.	.	.	35.627	.	voice
4IVm7c	E-:7/5	.	.	.	.	.	36.237	.	voice
=16	=16	=16	=16	=16	=16	=16	=16	=16	=16
*>Letter>B	*>Letter>B	*>Letter>B	*>Letter>B	*>Letter>B	*>Letter>B	*>Letter>B	*>Letter>B	*>Letter>B	*>Letter>B
*>Label>Verse	*>Label>Verse	*>Label>Verse	*>Label>Verse	*>Label>Verse	*>Label>Verse	*>Label>Verse	*>Label>Verse	*>Label>Verse	*>Label>Verse
1I	B-:maj	8.F	All	1r	.	.	36.846	newline	voice
.	.	[16G	your	.	.	.	.	.	.
.	.	8G]	_	.	.	.	.	.	.
.	.	8B-	life	.	.	D	.	.	.
.	.	16r	.	.	.	.	.	.	.
.	.	8.F	you	.	.	.	.	.	.
.	.	8G	had	.	.	.	.	.	.
.	.	8B-	to	.	.	.	.	.	.
=17	=17	=17	=17	=17	=17	=17	=17	=17	=17
1II7	C:7	8.G	stand	1r	.	.	39.266	.	voice
.	.	[16A	in	.	.	.	.	.	.
.	.	8A]	_	.	.	.	.	.	.
.	.	[8c	line	.	.	D	.	.	.
.	.	4c]	_	.	.	.	.	.	.
.	.	4r	.	.	.	.	.	.	.
=18	=18	=18	=18	=18	=18	=18	=18	=18	=18
1V7	F:7	8.c	still	1r	.	.	41.686	.	voice
.	.	[16d	you're	.	.	.	.	.	.
.	.	8d]	_	.	.	.	.	.	.
.	.	[8f	stan	.	.	.	.	.	.
.	.	16f]	_	.	.	.	.	.	.
.	.	8.c	ding	.	.	.	.	.	.
.	.	8d	on	.	.	.	.	.	.
.	.	8f	your	.	.	.	.	.	.
=19	=19	=19	=19	=19	=19	=19	=19	=19	=19
2I	B-:maj	8d	feet	1r	.	E	44.106	.	voice
.	.	8r	.	.	.	.	.	.	.
.	.	8r	.	.	.	.	.	.	.
.	.	16d	Oh	.	.	.	.	.	.
.	.	[16c	_	.	.	.	.	.	.
2IVc	E-:maj/5	4c]	_	.	.	.	45.316	.	voice
.	.	16d	_	.	.	.	.	.	.
.	.	16c	_	.	.	.	.	.	.
.	.	16B-	_	.	.	.	.	.	.
.	.	16G	_	.	.	.	.	.	.
=20	=20	=20	=20	=20	=20	=20	=20	=20	=20
1I	B-:maj	8.F	all	1r	.	.	46.526	newline	voice
.	.	[16G	the	.	.	.	.	.	.
.	.	8G]	_	.	.	.	.	.	.
.	.	[8B-	choi	.	.	.	.	.	.
.	.	16B-]	_	.	.	.	.	.	.
.	.	16F	ces	.	.	.	.	.	.
.	.	8r	.	.	.	.	.	.	.
.	.	8G	made	.	.	.	.	.	.
.	.	8B-	you	.	.	.	.	.	.
=21	=21	=21	=21	=21	=21	=21	=21	=21	=21
1II7	C:7	8.G	change	1r	.	.	48.973	.	voice
.	.	[16A	your	.	.	.	.	.	.
.	.	8A]	_	.	.	.	.	.	.
.	.	[8c	mind	.	.	D	.	.	.
.	.	4c]	_	.	.	.	.	.	.
.	.	4r	.	.	.	.	.	.	.
=22	=22	=22	=22	=22	=22	=22	=22	=22	=22
1V7	F:7	8.c	now	1r	.	.	51.421	.	voice
.	.	[16d	your	.	.	.	.	.	.
.	.	8d]	_	.	.	.	.	.	.
.	.	[8f	ca	.	.	.	.	.	.
.	.	16f]	_	.	.	.	.	.	.
.	.	8.c	len-	.	.	.	.	.	.
.	.	8d	-dar's	.	.	.	.	.	.
.	.	8f	com	.	.	.	.	.	.
=23	=23	=23	=23	=23	=23	=23	=23	=23	=23
.	.	8cq	_	.	.	.	.	.	.
2I	B-:maj	8d	plete	1r	.	E	53.869	.	voice
.	.	8r	.	.	.	.	.	.	.
.	.	8r	.	.	.	.	.	.	.
.	.	16d-	don't	.	.	.	.	.	.
.	.	16B-Q	_	.	.	.	.	.	.
.	.	[16c	wait	.	.	A	.	.	.
2III7c	D:7/5	4.c]	_	.	.	.	55.093	.	voice
.	.	16~d-	for	.	.	.	.	.	.
.	.	[16B-	an	.	.	(C	.	.	.
=24	=24	=24	=24	=24	=24	=24	=24	=24	=24
*>Letter>C	*>Letter>C	*>Letter>C	*>Letter>C	*>Letter>C	*>Letter>C	*>Letter>C	*>Letter>C	*>Letter>C	*>Letter>C
*>Label>Chorus	*>Label>Chorus	*>Label>Chorus	*>Label>Chorus	*>Label>Chorus	*>Label>Chorus	*>Label>Chorus	*>Label>Chorus	*>Label>Chorus	*>Label>Chorus
2vi	G:min	16B-]	_	1r	.	.	56.316	newline	voice
.	.	8.G	swers	.	.	c)	.	.	.
.	.	8r	.	.	.	.	.	.	.
.	.	16~B-	just	.	.	.	.	.	.
.	.	8B-q	_	.	.	.	.	.	.
.	.	[16c	take	.	.	A	.	.	.
2Im7c	B-:7/5	4.c]	_	.	.	.	57.526	.	voice
.	.	16~d	your	.	.	.	.	.	.
.	.	[16B-	chan	.	.	(C	.	.	.
=25	=25	=25	=25	=25	=25	=25	=25	=25	=25
2#ivo7	E:hdim7	16B-]	_	1r	.	.	58.736	.	voice
.	.	8.G	ces	.	.	c)	.	.	.
.	.	8r	.	.	.	.	.	.	.
.	.	8~cq	_	.	.	.	.	.	.
.	.	16~d-	don't	.	.	.	.	.	.
.	.	[16c	ask	.	.	.	.	.	.
2V	F:sus4(b7)	4c]	_	.	.	.	59.946	.	voice
.	.	8B-	_	.	.	.	.	.	.
.	.	16B-	me	.	.	.	.	.	.
.	.	[16B-	why	.	.	.	.	.	.
=26	=26	=26	=26	=26	=26	=26	=26	=26	=26
4I	B-:maj	2B-]	_	1r	.	.	61.155	.	voice
4IVm7c	E-:7/5	.	.	.	.	.	61.76	.	voice
4I	B-:maj	2r	.	.	.	.	62.365	.	voice
4IVm7c	E-:7/5	.	.	.	.	.	62.97	.	voice
=27	=27	=27	=27	=27	=27	=27	=27	=27	=27
4I	B-:maj	2r	.	1r	.	.	63.575	.	voice
4IVm7c	E-:7/5	.	.	.	.	.	64.18	.	voice
4I	B-:maj	8r	.	.	.	.	64.785	.	voice
.	.	[8c	Mmm,	.	.	.	.	.	.
4IVm7c	E-:7/5	16c]	_	.	.	.	65.39	.	voice
.	.	8.c	_	.	.	.	.	.	.
=28	=28	=28	=28	=28	=28	=28	=28	=28	=28
*>Letter>D	*>Letter>D	*>Letter>D	*>Letter>D	*>Letter>D	*>Letter>D	*>Letter>D	*>Letter>D	*>Letter>D	*>Letter>D
*>Label>Bridge	*>Label>Bridge	*>Label>Bridge	*>Label>Bridge	*>Label>Bridge	*>Label>Bridge	*>Label>Bridge	*>Label>Bridge	*>Label>Bridge	*>Label>Bridge
1V	F:maj	16c	you	1r	.	.	65.994	newline	voice
.	.	8.c	can	.	.	.	.	.	.
.	.	8.c	say	.	.	.	.	.	.
.	.	16B-	the	.	.	.	.	.	.
.	.	16c	hu-	.	.	.	.	.	.
.	.	8c	-man	.	.	.	.	.	.
.	.	16cQ	_	.	.	.	.	.	.
.	.	[16d	heart	.	.	.	.	.	.
.	.	8d]	_	.	.	.	.	.	.
.	.	16c	is	.	.	.	.	.	.
.	.	[16c	on	.	.	.	.	.	.
=29	=29	=29	=29	=29	=29	=29	=29	=29	=29
1IV	E-:maj	8c]	_	1r	.	.	68.422	.	voice
.	.	16B-	ly	.	.	.	.	.	.
.	.	[16B-	make	.	.	.	.	.	.
.	.	8B-]	_	.	.	.	.	.	.
.	.	16G	be-	.	.	.	.	.	.
.	.	[16B-	-lieve	.	.	D	.	.	.
.	.	8B-]	_	.	.	.	.	.	.
.	.	8r	.	.	.	.	.	.	.
.	.	4r	.	.	.	.	.	.	.
=30	=30	=30	=30	=30	=30	=30	=30	=30	=30
1V	F:maj	16A	I	1r	.	.	70.849	.	voice
.	.	8A	am	.	.	.	.	.	.
.	.	[16A	on	.	.	.	.	.	.
.	.	8A]	_	.	.	.	.	.	.
.	.	8B-	ly	.	.	.	.	.	.
.	.	16c	figh-	.	.	.	.	.	.
.	.	8B-	-ting	.	.	.	.	.	.
.	.	16B-	fi-	.	.	(E	.	.	.
.	.	8A	-re	.	.	e)	.	.	.
.	.	8G	with	.	.	.	.	.	.
=31	=31	=31	=31	=31	=31	=31	=31	=31	=31
1I	B-:maj	16G	fi-	1r	.	(E	73.276	.	voice
.	.	8.F	-re	.	.	e)	.	.	.
.	.	4r	.	.	.	.	.	.	.
.	.	4r	.	.	.	.	.	.	.
.	.	8.r	.	.	.	.	.	.	.
.	.	16~BB-	But	.	.	.	.	.	.
=32	=32	=32	=32	=32	=32	=32	=32	=32	=32
1VI	G:maj	16B	you	16d	you	.	75.704	newline	voice
.	.	8.B	are	8.d	are	.	.	.	.
.	.	8B	still	8d	still	.	.	.	.
.	.	16c	a	16e	a	.	.	.	.
.	.	[16d	vic	[16f	vic	.	.	.	.
.	.	16d]	_	16f]	_	.	.	.	.
.	.	8.c	tim	8.e	tim	.	.	.	.
.	.	16cQ	_	16eQ	_	.	.	.	.
.	.	8B	of	8d	of	.	.	.	.
.	.	16A	the	16d	the	.	.	.	.
.	.	[16A	ac	[16d	ac	.	.	.	.
=33	=33	=33	=33	=33	=33	=33	=33	=33	=33
1II	C:maj	8A]	_	8d]	_	.	78.144	.	voice
.	.	16G	ci-	16c	ci-	.	.	.	.
.	.	[16G	-dents	[16c	-dents	.	.	.	.
.	.	8G]	_	8c]	_	.	.	.	.
.	.	16~F	you	16~A	you	.	.	.	.
.	.	[16G	leave	[16c	leave	D	.	.	.
.	.	8G]	_	8c]	_	.	.	.	.
.	.	8r	.	8r	.	.	.	.	.
.	.	4r	.	4r	.	.	.	.	.
=34	=34	=34	=34	=34	=34	=34	=34	=34	=34
1VI	G:maj	16B	sure	16d	sure	.	80.584	.	voice
.	.	8.B	as	8.d	as	.	.	.	.
.	.	8B	I'm	8d	I'm	.	.	.	.
.	.	16c	a	16e-	a	.	.	.	.
.	.	16d	vic	16f	vic	.	.	.	.
.	.	16r	.	16r	.	.	.	.	.
.	.	8.d	tim	8.f	tim	.	.	.	.
.	.	16e	of	16g	of	.	.	.	.
.	.	16d	_	16f	_	.	.	.	.
.	.	16c	de-	16e	de-	.	.	.	.
.	.	[16c	-sire,	[16e	-sire,	E	.	.	.
=35	=35	=35	=35	=35	=35	=35	=35	=35	=35
2II7	C:7	2c]	_	2e]	_	.	83.025	.	voice
2V7	F:7	8.B-	yeah,	8.d	yeah,	.	84.245	.	voice
.	.	[16A	yeah,	[16c	yeah,	.	.	.	.
.	.	8A]	_	8c]	_	.	.	.	.
.	.	8G	yeah,	8B-	yeah,	.	.	.	.
=36	=36	=36	=36	=36	=36	=36	=36	=36	=36
*>Letter>B	*>Letter>B	*>Letter>B	*>Letter>B	*>Letter>B	*>Letter>B	*>Letter>B	*>Letter>B	*>Letter>B	*>Letter>B
*>Label>Verse	*>Label>Verse	*>Label>Verse	*>Label>Verse	*>Label>Verse	*>Label>Verse	*>Label>Verse	*>Label>Verse	*>Label>Verse	*>Label>Verse
1I	B-:maj	8.F	all	8.D 8.B-	all	.	85.465	newline	voice
.	.	[16G	the	[16E- [16c	the	.	.	.	.
.	.	8G]	_	8E-] 8c]	_	.	.	.	.
.	.	[8B-	ser	[8F [8d	ser	.	.	.	.
.	.	16B-]	_	16F] 16d]	_	.	.	.	.
.	.	16F	vants	16D 16B-	vants	.	.	.	.
.	.	8r	.	8r	.	.	.	.	.
.	.	8G	in	8E- 8c	in	.	.	.	.
.	.	8B-	your	8F 8d	your	.	.	.	.
=37	=37	=37	=37	=37	=37	=37	=37	=37	=37
1II7	C:7	8.G	new	8.E 8.c	new	.	87.909	.	voice
.	.	[16A	ho	[16F [16d	ho	.	.	.	.
.	.	8A]	_	8F] 8d]	_	.	.	.	.
.	.	[8c	tel	[8G [8e	tel	.	.	.	.
.	.	8c]	_	8G] 8e]	_	.	.	.	.
.	.	8r	.	8r	.	.	.	.	.
.	.	4r	.	4r	.	.	.	.	.
=38	=38	=38	=38	=38	=38	=38	=38	=38	=38
1V7	F:7	8.c	throw	1r	.	.	90.354	.	voice
.	.	[16d	their	.	.	.	.	.	.
.	.	8d]	_	.	.	.	.	.	.
.	.	[8f	ro	.	.	.	.	.	.
.	.	16f]	_	.	.	.	.	.	.
.	.	8.c	ses	.	.	.	.	.	.
.	.	8d	at	.	.	.	.	.	.
.	.	8f	your	.	.	.	.	.	.
=39	=39	=39	=39	=39	=39	=39	=39	=39	=39
2I	B-:maj	8d	feet	1r	.	F	92.799	.	voice
.	.	8r	.	.	.	.	.	.	.
.	.	8r	.	.	.	.	.	.	.
.	.	16d	Oh	.	.	.	.	.	.
.	.	[16c	_	.	.	.	.	.	.
2IVc	E-:maj/5	4c]	_	.	.	.	94.021	.	voice
.	.	16~d-	_	.	.	.	.	.	.
.	.	16c	_	.	.	.	.	.	.
.	.	16B-	_	.	.	.	.	.	.
.	.	16G	_	.	.	.	.	.	.
=40	=40	=40	=40	=40	=40	=40	=40	=40	=40
1I	B-:maj	8.F	fool	8.D 8.B-	fool	.	95.243	newline	voice
.	.	[16G	them	[16E- [16c	them	.	.	.	.
.	.	8G]	_	8E-] 8c]	_	.	.	.	.
.	.	[8B-	all,	[8F [8d	all,	.	.	.	.
.	.	16B-]	_	16F] 16d]	_	.	.	.	.
.	.	16F	but	16D 16B-	but	.	.	.	.
.	.	8r	.	8r	.	.	.	.	.
.	.	8G	ba-	8E- 8c	ba-	A	.	.	.
.	.	8B-	-by	8F 8d	-by	.	.	.	.
=41	=41	=41	=41	=41	=41	=41	=41	=41	=41
1II7	C:7	8.G	I	8.E 8.c	I	.	97.685	.	voice
.	.	[16A	can	[16F [16d	can	.	.	.	.
.	.	8A]	_	8F] 8d]	_	.	.	.	.
.	.	[8c	tell	[8G [8e	tell	.	.	.	.
.	.	8c]	_	8G] 8e]	_	.	.	.	.
.	.	8r	.	8r	.	.	.	.	.
.	.	4r	.	4r	.	.	.	.	.
=42	=42	=42	=42	=42	=42	=42	=42	=42	=42
1V7	F:7	8.c	you're	1r	.	.	100.127	.	voice
.	.	[16d	no	.	.	.	.	.	.
.	.	8d]	_	.	.	.	.	.	.
.	.	[8f	stran	.	.	A	.	.	.
.	.	16f]	_	.	.	.	.	.	.
.	.	8.c	ger	.	.	.	.	.	.
.	.	8d	to	.	.	.	.	.	.
.	.	8f	the	.	.	.	.	.	.
=43	=43	=43	=43	=43	=43	=43	=43	=43	=43
2I	B-:maj	8d	street	2d 2f	Ooh!	F	102.568	.	voice
.	.	8r	.	.	.	.	.	.	.
.	.	8r	.	.	.	.	.	.	.
.	.	16d-	Don't	.	.	.	.	.	.
.	.	16B-Q	_	.	.	.	.	.	.
.	.	[16c	ask	.	.	.	.	.	.
2III7c	D:7/5	4.c]	_	2c 2f#	_	.	103.789	.	voice
.	.	16d	for	.	.	.	.	.	.
.	.	16AQ	_	.	.	.	.	.	.
.	.	[16B-	fa	.	.	A	.	.	.
=44	=44	=44	=44	=44	=44	=44	=44	=44	=44
*>Letter>C	*>Letter>C	*>Letter>C	*>Letter>C	*>Letter>C	*>Letter>C	*>Letter>C	*>Letter>C	*>Letter>C	*>Letter>C
*>Label>Chorus	*>Label>Chorus	*>Label>Chorus	*>Label>Chorus	*>Label>Chorus	*>Label>Chorus	*>Label>Chorus	*>Label>Chorus	*>Label>Chorus	*>Label>Chorus
2vi	G:min	16B-]	_	2B- 2g	_	.	105.01	newline	voice
.	.	8.G	vors	.	.	.	.	.	.
.	.	8r	.	.	.	.	.	.	.
.	.	8d	don't	.	.	.	.	.	.
.	.	16B-Q	_	.	.	.	.	.	.
2Im7c	B-:7/5	4.c	talk	2A- 2f	_	.	106.235	.	voice
.	.	16d	to	.	.	.	.	.	.
.	.	[16B-	stran	.	.	A	.	.	.
=45	=45	=45	=45	=45	=45	=45	=45	=45	=45
2#ivo7	E:hdim7	16B-]	_	2G 2e	_	.	107.46	.	voice
.	.	8.G	gers	.	.	.	.	.	.
.	.	8r	.	.	.	.	.	.	.
.	.	8~cq	_	.	.	.	.	.	.
.	.	16~d-	don't	.	.	.	.	.	.
.	.	[16c	ask	.	.	.	.	.	.
2V	F:sus4(b7)	4.c]	_	2F 2e-	_	.	108.685	.	voice
.	.	16B-	me	.	.	.	.	.	.
.	.	[16B-	why	.	.	.	.	.	.
=46	=46	=46	=46	=46	=46	=46	=46	=46	=46
4I	B-:maj	4.B-]	_	1F 1d	_	.	109.909	.	voice
4IVm7c	E-:7/5	.	.	.	.	.	110.522	.	voice
.	.	8r	.	.	.	.	.	.	.
4I	B-:maj	2r	.	.	.	.	111.134	.	voice
4IVm7c	E-:7/5	.	.	.	.	.	111.747	.	voice
=47	=47	=47	=47	=47	=47	=47	=47	=47	=47
4I	B-:maj	1r	.	1r	.	.	112.359	.	voice
4IVm7c	E-:7/5	.	.	.	.	.	112.971	.	voice
4I	B-:maj	.	.	.	.	.	113.584	.	voice
4IVm7c	E-:7/5	.	.	.	.	.	114.196	.	voice
=48	=48	=48	=48	=48	=48	=48	=48	=48	=48
*>Letter>D	*>Letter>D	*>Letter>D	*>Letter>D	*>Letter>D	*>Letter>D	*>Letter>D	*>Letter>D	*>Letter>D	*>Letter>D
*>Label>Solo	*>Label>Solo	*>Label>Solo	*>Label>Solo	*>Label>Solo	*>Label>Solo	*>Label>Solo	*>Label>Solo	*>Label>Solo	*>Label>Solo
1V	F:maj	1r	.	1r	.	.	114.809	newline	piano
=49	=49	=49	=49	=49	=49	=49	=49	=49	=49
1IV	E-:maj	1r	.	1r	.	.	117.275	.	piano
=50	=50	=50	=50	=50	=50	=50	=50	=50	=50
1V	F:maj	1r	.	1r	.	.	119.742	.	piano
=51	=51	=51	=51	=51	=51	=51	=51	=51	=51
1I	B-:maj	1r	.	1r	.	.	122.209	.	piano
=52	=52	=52	=52	=52	=52	=52	=52	=52	=52
1VI	G:maj	1r	.	1r	.	.	124.676	newline	piano
=53	=53	=53	=53	=53	=53	=53	=53	=53	=53
1II	C:maj	1r	.	1r	.	.	127.111	.	piano
=54	=54	=54	=54	=54	=54	=54	=54	=54	=54
1VI	G:maj	1r	.	1r	.	.	129.545	.	piano
=55	=55	=55	=55	=55	=55	=55	=55	=55	=55
2II7	C:7	1r	.	1r	.	.	131.98	.	piano
2V7	F:7	.	.	.	.	.	133.197	.	piano
=56	=56	=56	=56	=56	=56	=56	=56	=56	=56
*>Letter>B	*>Letter>B	*>Letter>B	*>Letter>B	*>Letter>B	*>Letter>B	*>Letter>B	*>Letter>B	*>Letter>B	*>Letter>B
*>Label>Verse	*>Label>Verse	*>Label>Verse	*>Label>Verse	*>Label>Verse	*>Label>Verse	*>Label>Verse	*>Label>Verse	*>Label>Verse	*>Label>Verse
1I	B-:maj	8.F	Yes	1r	.	.	134.414	newline	voice
.	.	[16G	ter	.	.	.	.	.	.
.	.	8G]	_	.	.	.	.	.	.
.	.	[8B-	day	.	.	A	.	.	.
.	.	16B-]	_	.	.	.	.	.	.
.	.	8.F	you	.	.	.	.	.	.
.	.	8G	were	.	.	.	.	.	.
.	.	8B-	an	.	.	.	.	.	.
=57	=57	=57	=57	=57	=57	=57	=57	=57	=57
1II7	C:7	8.G	on-	1r	.	.	136.878	.	voice
.	.	[16A	-ly	.	.	.	.	.	.
.	.	8A]	_	.	.	.	.	.	.
.	.	[8c	child	.	.	G	.	.	.
.	.	8c]	_	.	.	.	.	.	.
.	.	8r	.	.	.	.	.	.	.
.	.	4r	.	.	.	.	.	.	.
=58	=58	=58	=58	=58	=58	=58	=58	=58	=58
1V7	F:7	8.c	now	1r	.	.	139.341	.	voice
.	.	[16d	your	.	.	.	.	.	.
.	.	8d]	_	.	.	.	.	.	.
.	.	8f	ghosts	.	.	.	.	.	.
.	.	16r	.	.	.	.	.	.	.
.	.	8.c	have	.	.	.	.	.	.
.	.	8d	gone	.	.	.	.	.	.
.	.	8f	a	.	.	.	.	.	.
=59	=59	=59	=59	=59	=59	=59	=59	=59	=59
.	.	8cq	_	.	.	.	.	.	.
2I	B-:maj	8d	way	1r	.	A	141.804	.	voice
.	.	8r	.	.	.	.	.	.	.
.	.	8r	.	.	.	.	.	.	.
.	.	16~d-	oh	.	.	.	.	.	.
.	.	[16c	_	.	.	.	.	.	.
2IVc	E-:maj/5	4c]	_	.	.	.	143.036	.	voice
.	.	16~d-	_	.	.	.	.	.	.
.	.	16c	_	.	.	.	.	.	.
.	.	16B-	_	.	.	.	.	.	.
.	.	16G	_	.	.	.	.	.	.
=60	=60	=60	=60	=60	=60	=60	=60	=60	=60
1I	B-:maj	8.F	you	1r	.	.	144.268	newline	voice
.	.	[16G	can	.	.	.	.	.	.
.	.	8G]	_	.	.	.	.	.	.
.	.	8B-	kill	.	.	.	.	.	.
.	.	16r	.	.	.	.	.	.	.
.	.	8.F	them	.	.	.	.	.	.
.	.	8G	in	.	.	.	.	.	.
.	.	8B-	the	.	.	.	.	.	.
=61	=61	=61	=61	=61	=61	=61	=61	=61	=61
1II7	C:7	8.G	clas-	1r	.	.	146.706	.	voice
.	.	[16A	-sic	.	.	.	.	.	.
.	.	8A]	_	.	.	.	.	.	.
.	.	[8c	style	.	.	G	.	.	.
.	.	8c]	_	.	.	.	.	.	.
.	.	8r	.	.	.	.	.	.	.
.	.	4r	.	.	.	.	.	.	.
=62	=62	=62	=62	=62	=62	=62	=62	=62	=62
1V7	F:7	8.c	now	1r	.	.	149.144	.	voice
.	.	[16d	you	.	.	.	.	.	.
.	.	8d]	_	.	.	.	.	.	.
.	.	[8f	par-	.	.	.	.	.	.
.	.	16f]	_	.	.	.	.	.	.
.	.	8.c	-lez	.	.	A	.	.	.
.	.	8d	vous	.	.	.	.	.	.
.	.	8f	fran-	.	.	.	.	.	.
=63	=63	=63	=63	=63	=63	=63	=63	=63	=63
.	.	8cq	_	.	.	.	.	.	.
2I	B-:maj	8d	-cais	2d 2f	Ooh	A	151.582	.	voice
.	.	4r	.	.	.	.	.	.	.
.	.	8d	don't	.	.	.	.	.	.
.	.	8B-q	_	.	.	.	.	.	.
2III7c	D:7/5	[4c	look	2c 2f#	_	.	152.801	.	voice
.	.	16c]	_	.	.	.	.	.	.
.	.	8d	for	.	.	.	.	.	.
.	.	[16B-	an	.	.	(E	.	.	.
=64	=64	=64	=64	=64	=64	=64	=64	=64	=64
*>Letter>C	*>Letter>C	*>Letter>C	*>Letter>C	*>Letter>C	*>Letter>C	*>Letter>C	*>Letter>C	*>Letter>C	*>Letter>C
*>Label>Chorus	*>Label>Chorus	*>Label>Chorus	*>Label>Chorus	*>Label>Chorus	*>Label>Chorus	*>Label>Chorus	*>Label>Chorus	*>Label>Chorus	*>Label>Chorus
2vi	G:min	16B-]	_	2B- 2g	_	.	154.02	newline	voice
.	.	8G	swers	.	.	e)	.	.	.
.	.	16r	.	.	.	.	.	.	.
.	.	8r	.	.	.	.	.	.	.
.	.	16B-	you	.	.	.	.	.	.
.	.	16B-Q	_	.	.	.	.	.	.
.	.	[16c	took	.	.	.	.	.	.
2Im7c	B-:7/5	4c_	_	2A- 2f	_	.	155.242	.	voice
.	.	16c]	_	.	.	.	.	.	.
.	.	8d	your	.	.	.	.	.	.
.	.	[16B-	chan	.	.	(E	.	.	.
=65	=65	=65	=65	=65	=65	=65	=65	=65	=65
2#ivo7	E:hdim7	16B-]	_	2G 2e	_	.	156.464	.	voice
.	.	8.G	ces	.	.	e)	.	.	.
.	.	8r	.	.	.	.	.	.	.
.	.	16d	don't	.	.	.	.	.	.
.	.	[16f	ask	.	.	.	.	.	.
2V	F:sus4(b7)	16f]	_	2F 2e-	_	.	157.686	.	voice
.	.	32c	_	.	.	.	.	.	.
.	.	32d	_	.	.	.	.	.	.
.	.	[8c	_	.	.	.	.	.	.
.	.	8c]	_	.	.	.	.	.	.
.	.	16B-	me	.	.	.	.	.	.
.	.	[16B-	why!	.	.	.	.	.	.
=66	=66	=66	=66	=66	=66	=66	=66	=66	=66
4I	B-:maj	1B-]	_	1F 1d	_	.	158.908	.	voice
4IVm7c	E-:7/5	.	.	.	.	.	159.519	.	voice
4I	B-:maj	.	.	.	.	.	160.13	.	voice
4IVm7c	E-:7/5	.	.	.	.	.	160.741	.	voice
=67	=67	=67	=67	=67	=67	=67	=67	=67	=67
4I	B-:maj	2r	.	2r	.	.	161.352	.	voice
4IVm7c	E-:7/5	.	.	.	.	.	161.964	.	voice
4I	B-:maj	8r	.	8r	.	.	162.575	.	voice
.	.	16F	Don't	16B-	Don't	.	.	.	.
.	.	[16G	ask	[16c	ask	.	.	.	.
4IVm7c	E-:7/5	8G]	_	8c]	_	.	163.186	.	voice
.	.	16F	me	16B-	me	.	.	.	.
.	.	[16BB-	why	[16F	why	.	.	.	.
=68	=68	=68	=68	=68	=68	=68	=68	=68	=68
*>Letter>A2	*>Letter>A2	*>Letter>A2	*>Letter>A2	*>Letter>A2	*>Letter>A2	*>Letter>A2	*>Letter>A2	*>Letter>A2	*>Letter>A2
*>Label>Outro	*>Label>Outro	*>Label>Outro	*>Label>Outro	*>Label>Outro	*>Label>Outro	*>Label>Outro	*>Label>Outro	*>Label>Outro	*>Label>Outro
4I	B-:maj	1BB-]	_	1F]	_	.	163.797	newline	voice
4IVm7c	E-:7/5	.	.	.	.	.	164.403	.	voice
4I	B-:maj	.	.	.	.	.	165.01	.	voice
4IVm7c	E-:7/5	.	.	.	.	.	165.617	.	voice
=69	=69	=69	=69	=69	=69	=69	=69	=69	=69
4I	B-:maj	1r	.	1r	.	.	166.224	.	voice
4IVm7c	E-:7/5	.	.	.	.	.	166.83	.	voice
2I	B-:maj	.	.	.	.	.	167.437	.	voice
1r;	N	r;	.	r;	.	.	179.086	.	r
*-	*-	*-	*-	*-	*-	*-	*-	*-	*-
!!!BillboardChartDate: 1980/10/18
!!!BillboardPeak: 19
!!!BillboardWeeksOnChart: 15
!!!COC: Billy Joel
!!!ENC: Nathaniel Condit-Schultz
!!!EST: Awating manual error checking and editing.
!!!OTL: Don't Ask Me Why
!!!RDF**harte: Chris Harte's syntax, used by MIREX
!!!RDF**harmony: **recip + pitch class of root + harmonic quality
!!!RDF**leadinstrument: original McGill primary instrumentation annotation
!!!RDF**phrase: newline = linebreak in original McGill transcription
!!!RDF**timestamp: McGill audio timestamp in seconds
!!!RDT: 2017/01/12/
!!!SampleActualRank: 57
!!!SampleID#: 0969
!!!SampleTargetRank: 58
!!!MBID: af7ca798-221f-4f62-ac89-a1d7ef8da665
